X:34
T:Hearts of Oak. Ya.34
B:Yarker MS, Cumbria, 1797
F:http://www.vwml.org/record/Yarkers1797/5234/p27
Z:vmp. Transcribed by David Jacobs Jan 2016
L:1/8
M:C
Q:1/4=100
K:F
c2|f2ff f2ag|f2ed c2zc|d2de f2fg|a2bg a2zc|
f2ABc2de|f2AB c2zg|a2gf c'2ef|g2gG c/c'/b/a/|
gfed c2g>g|g2e>f g2a>a|a2f>g a2za|gfea fdz2|
f<f c2A<F zc|defg a2gf|c'2cef2(f/e/)d|cBAG FGAB|cc' ce fF:|]

